X: 14085
T: SAM'S HORNPIPE
C: Bob McQuillen March'09
B: Bob's Note Book 14 #85
%R: hornpipe, reel
%D:2009
Z: 2020 John Chambers <jc:trillian.mit.edu>
M: C
L: 1/8
K: D
A2 \
| defe dBAG | FGAF D2FA | dAdf e2fg | afdf e2fe |
| defe dBAG | FGAF DFAd | f2fa gecA | d2f2 d2  :|
|: fg \
| a2fd Adfa | g2ga gfe2 | f2fa gfed | cdec A2dc |
| BGBd g2dB | AFAd f2gf | efed ceag | f2d2 d2  :|
%%begintext align
%% Sam (Samantha!) is
%% a nifty young woman. She's married to Curtis Dude,
%% (who is also nifty!) and they work together at tree
%% removal. Sometimes she comes to the Monday Night
%% Dance in Nelson, and she always comes up and says
%% "Hi"" to me. She's a sweetheart. And a big "Hi" to you,
%% too, Sam! (and "Hi" Curtis, too!)
%%endtext

%%sep 1 1 500

%%sep 1 1 500

